images/NEXO.svg

<svg height="250" viewBox="0 0 250 250" width="250" xmlns="http://www.w3.org/2000/svg"><path d="m164.699219 54.691406 39.039062 22.503906c.46875.285157.859375.683594 1.136719 1.160157.273438.476562.425781 1.011719.4375 1.5625l-.03125 91.902343-39.011719 22.507813c-.496093.289063-1.0625.441406-1.640625.441406-.574218 0-1.140625-.152343-1.640625-.441406l-38.929687-22.476563-40.503906 23.398438v.0625l-39.011719-22.507812c-.484375-.292969-.882813-.710938-1.160157-1.203126-.273437-.496093-.417968-1.050781-.414062-1.617187v-91.867187l39.011719-22.507813c.46875-.289063 1.007812-.445313 1.558593-.445313.550782 0 1.089844.15625 1.558594.445313l79.597656 45.933594 39.042969-24.347657-39.042969 24.34375-40.582031-23.425781 40.582031-23.421875v-.003906h.003907zm0 0" fill="#2853c3" fill-rule="evenodd"/><path d="m42.96875 78.113281v91.871094c-.003906.566406.140625 1.121094.414062 1.617187.277344.492188.675782.910157 1.160157 1.203126l39.011719 22.507812v-93.835938zm0 0" fill="#60beff"/><path d="m164.703125 54.6875 39.042969 22.507812c.472656.285157.863281.683594 1.136718 1.160157.273438.476562.425782 1.011719.4375 1.5625v91.871093l-40.617187-23.394531zm0 0" fill="#1a4199"/><path d="m83.558594 195.25 40.554687-23.425781-40.554687-23.429688zm0 0" fill="#3ca9e5"/><path d="m85.097656 55.609375 79.597656 45.933594v46.851562l-121.726562-70.277343 39.011719-22.507813c.46875-.289063 1.007812-.445313 1.558593-.445313.550782 0 1.089844.15625 1.558594.445313zm0 0" fill="#3ca9e5"/><g fill="#2853c3"><path d="m164.703125 54.6875-40.589844 23.425781 40.589844 23.429688zm0 0"/><path d="m205.292969 171.820312-39.011719 22.507813c-.5.289063-1.066406.441406-1.640625.441406-.578125 0-1.140625-.152343-1.640625-.441406l-79.566406-45.933594v-46.917969zm0 0"/></g></svg>

<svg xmlns="http://www.w3.org/2000/svg" xmlns:xlink="http://www.w3.org/1999/xlink" width="250px" height="250px" viewBox="0 0 250 250" version="1.1">
<g id="surface1">
<path style=" stroke:none;fill-rule:evenodd;fill:rgb(15.686275%,32.549021%,76.47059%);fill-opacity:1;" d="M 164.699219 54.691406 L 203.738281 77.195312 C 204.207031 77.480469 204.597656 77.878906 204.875 78.355469 C 205.148438 78.832031 205.300781 79.367188 205.3125 79.917969 L 205.28125 171.820312 L 166.269531 194.328125 C 165.773438 194.617188 165.207031 194.769531 164.628906 194.769531 C 164.054688 194.769531 163.488281 194.617188 162.988281 194.328125 L 124.058594 171.851562 L 83.554688 195.25 L 83.554688 195.3125 L 44.542969 172.804688 C 44.058594 172.511719 43.660156 172.09375 43.382812 171.601562 C 43.109375 171.105469 42.964844 170.550781 42.96875 169.984375 L 42.96875 78.117188 L 81.980469 55.609375 C 82.449219 55.320312 82.988281 55.164062 83.539062 55.164062 C 84.089844 55.164062 84.628906 55.320312 85.097656 55.609375 L 164.695312 101.542969 L 203.738281 77.195312 L 164.695312 101.539062 L 124.113281 78.113281 L 164.695312 54.691406 L 164.695312 54.6875 L 164.699219 54.6875 Z M 164.699219 54.691406 "/>
<path style=" stroke:none;fill-rule:nonzero;fill:rgb(37.64706%,74.509805%,100%);fill-opacity:1;" d="M 42.96875 78.113281 L 42.96875 169.984375 C 42.964844 170.550781 43.109375 171.105469 43.382812 171.601562 C 43.660156 172.09375 44.058594 172.511719 44.542969 172.804688 L 83.554688 195.3125 L 83.554688 101.476562 Z M 42.96875 78.113281 "/>
<path style=" stroke:none;fill-rule:nonzero;fill:rgb(10.196079%,25.490198%,60.000002%);fill-opacity:1;" d="M 164.703125 54.6875 L 203.746094 77.195312 C 204.21875 77.480469 204.609375 77.878906 204.882812 78.355469 C 205.15625 78.832031 205.308594 79.367188 205.320312 79.917969 L 205.320312 171.789062 L 164.703125 148.394531 Z M 164.703125 54.6875 "/>
<path style=" stroke:none;fill-rule:nonzero;fill:rgb(23.529412%,66.274512%,89.803922%);fill-opacity:1;" d="M 83.558594 195.25 L 124.113281 171.824219 L 83.558594 148.394531 Z M 83.558594 195.25 "/>
<path style=" stroke:none;fill-rule:nonzero;fill:rgb(23.529412%,66.274512%,89.803922%);fill-opacity:1;" d="M 85.097656 55.609375 L 164.695312 101.542969 L 164.695312 148.394531 L 42.96875 78.117188 L 81.980469 55.609375 C 82.449219 55.320312 82.988281 55.164062 83.539062 55.164062 C 84.089844 55.164062 84.628906 55.320312 85.097656 55.609375 Z M 85.097656 55.609375 "/>
<path style=" stroke:none;fill-rule:nonzero;fill:rgb(15.686275%,32.549021%,76.47059%);fill-opacity:1;" d="M 164.703125 54.6875 L 124.113281 78.113281 L 164.703125 101.542969 Z M 164.703125 54.6875 "/>
<path style=" stroke:none;fill-rule:nonzero;fill:rgb(15.686275%,32.549021%,76.47059%);fill-opacity:1;" d="M 205.292969 171.820312 L 166.28125 194.328125 C 165.78125 194.617188 165.214844 194.769531 164.640625 194.769531 C 164.0625 194.769531 163.5 194.617188 163 194.328125 L 83.433594 148.394531 L 83.433594 101.476562 Z M 205.292969 171.820312 "/>
</g>
</svg>
